X:1
T:O Worship the King
T:O Worship the King
T:Johann Michael Haydn (1737-1806)
T:Robert Grant, 1833
T:Public Domain Courtesy of the Cyber Hymnal™
C:Johann Michael Haydn (1737-1806)
Z:Public Domain
Z:Courtesy of the Cyber Hymnal™
%%score ( 1 2 ) ( 3 4 )
L:1/8
M:3/4
K:G
V:1 treble 
V:2 treble 
V:3 bass 
V:4 bass 
V:1
 [B,D]2 | [DG]2 [DG]2 [DA]2 | [DB]4 [DG]2 | [Cc]2 [Dc]2 [DB]2 | [DA]4 (DC) | [B,G]2 [DG]2 [DA]2 | %6
w: 1.~O|wor- ship the|King, all|glor- ious a-|bove, O *|grate- ful- ly|
w: 2.~O|tell of His|might, O|sing of His|grace, Whose *|robe is the|
w: 3.~The|earth with its|store of|won- ders un-|told, Al- *|migh- ty, Thy|
w: 4.~Thy|boun- ti- ful|care, what|tongue can re-|cite? It *|breathes in the|
w: 5.~Frail|child- ren of|dust, and|fee- ble as|frail, In *|Thee do we|
w: 6.~O|mea- sure- less|might! In-|ef- fa- ble|love! While *|an- gels de-|
 [DB]4 [Ec]2 | ([Dd][Ec]) [DB]2 [CA]2 | [B,G]4 D2 | D2 D2 [^CE]2 | [CF]2 [CF]2 [B,G]2 | %11
w: sing His|power * and His|love; Our|shield and de-|fend- er, the|
w: light, whose|can- * o- py|space, His|char- iots of|wrath the deep|
w: power hath|found- * ed of|old; Es-|tab- lished it|fast by a|
w: air, it|shines * in the|light; It|streams from the|hills, it de-|
w: trust, nor|find * Thee to|fail; Thy|mer- cies how|ten- der, how|
w: light to|worship * Thee a-|bove, The|hum- bler cre-|a- tion, though|
 [A,A]2 [DA]2 [GB]2 | [Fc]4 (DC) | [B,G]2 [DG]2 [DA]2 | [DB]2 [DB]2 [Ec]2 | %15
w: An- cient of|Days, Pa- *|vil- ioned in|splen- dor, and|
w: thun- der- clouds|form, And *|dark is His|path on the|
w: change- less de-|cree, And *|round it hath|cast, like a|
w: scends to the|plain, And *|sweet- ly dis-|tills in the|
w: firm to the|end, Our *|mak- er, de-|fen- der, Re-|
w: fee- ble their|lays, With *|true a- do-|ra- tion shall|
 ([Dd][Ec]) [DB]2 [CA]2 | [B,G]4 |] %17
w: gird- * ed with|praise.|
w: wings * of the|storm.|
w: man- * tle, the|sea.|
w: dew * and the|rain.|
w: deem- * er, and|friend.|
w: all * sing Thy|praise.|
V:2
 x2 | x6 | x6 | x6 | x6 | x6 | x6 | x6 | x4 D2 | D2 D2 x2 | x6 | x6 | x6 | x6 | x6 | x6 | x4 |] %17
V:3
 [G,,G,]2 | [G,,B,]2 [B,,G,]2 [D,F,]2 | G,4 [B,,G,]2 | [E,G,]2 [F,A,]2 G,2 | [D,F,]4 [D,F,]2 | %5
 [G,,G,]2 [B,,G,]2 [D,F,]2 | G,4 [E,G,]2 | G,2 [D,G,]2 [D,F,]2 | [G,,G,]4 [D,F,]2 | %9
 [D,F,]2 [D,F,]2 [D,G,]2 | [D,A,]2 [D,A,]2 [D,G,]2 | [D,F,]2 [D,F,]2 [D,G,]2 | [D,A,]4 [D,F,]2 | %13
 [G,,G,]2 [B,,G,]2 [D,F,]2 | G,2 G,2 [E,G,]2 | G,2 [D,G,]2 [D,F,]2 | [G,,G,]4 |] %17
V:4
 x2 | x6 | G,4 x2 | x4 G,2 | x6 | x6 | G,4 x2 | (B,,C,) x4 | x6 | x6 | x6 | x6 | x6 | x6 | %14
 G,2 G,2 x2 | (B,,C,) x4 | x4 |] %17

